X:1
T: The Shores of Solway
T: 8 x 32S 3C (Roy Goldring 10 Social Dances)
P: Joe Murphy
C: by George Stirrat, arr. T. Traub 5-16-96
R: Strathspey
M: 4/4
K: A
L: 1/8
E2|"A"A2 a>f e>f e<c|"Bm"B>c d<f "E"e>=f^f>g|"A"a<Ac>e "F#m"a2 a2|"Bm"fa "E"g<ef>g|"A"a>e c<e "D"f2 a2|
"E"e>fe>d "F#m"c2 "E"B2| "A"A2 a>f e>f e<c|"E"e>=f^f>g "A"a2 e2||"A"A<cA>c e2 a2|"Bm"fa "E"g>fe>d|
"A"c>d e<c "F#m"A>B c<A|"Bm"B>cd^d "E"e>=f^f>g|"A"a>e c<e "D"f2 a2|"E"e>fe>d "F#m"c2 "E"B2|"A"A2 a>f e>f e<c|"E"e>=f^f>g "A"a2 |]
